!! 00000] TT[00
!! NN
!!!OTL: Zanmen de jiu xing gong chan dang
!!!ARE: Asia, China,ÿHeilongjiang
!! Ethnic Group: Han
!! III, 9
!!!SCT: C0273
!!!YEM: Copyright 1995, estate of Helmut Schaffrath.
**kern
*ICvox
*Ivox
*M2/4
*k[f#]
*G:
{8r
8a
8a
8e
=1
8a
4.a}
=2
{8.dd
16b
4a}
=3
{8.dd
16b
4a}
=4
{8a
16dd
16dd
8b
8a
=5
8g
8a
4e}
=6
{8a
16dd
16dd
8b
8a
=7
8g
8a
4e}
=8
{8r
8dd
8dd
8dd
=9
4dd
8.b
16ff#
=10
2ee}
=11
{8b
16ee
16ee
8dd
8b
=12
8a
16b
16a
8g
8e
=13
4.dd
8b
=14
2ee}
=15
{8a
16a
16a
8a
8dd
=16
4a
8g
8e
=17
8a
8a
8a
8a
=18
4dd
8e
8e
=19
4.d}
{8e
=20
4g
4b
=21
8e
8e
4d
=22
8b
8b
8a
8b
=23
2d}
==
!!!AGN: Xiaodiao, Dongbeifeng diao, Wuge, Yangge, Dongbei dayangge. Xin minge
!! Titel und Text neu, Melodie alt und populaer.
!!    Glissandi.Der letzte Takt der 2. Strophe ist eine Oktave hoeher notiert
!!!ONB: ESAC (Essen Associative Code) Database: CHINA
!!!AMT: simple duple
!!!AIN: vox
!!!EED: Helmut Schaffrath
!!!EEV: 1.0
*-
